raycast/extensions/amzn-raycast-extension/assets/spreadsheet.svg

<svg viewBox="0 0 384 512" xmlns="http://www.w3.org/2000/svg"><path d="m365.3 93.38-74.63-74.64c-12.07-11.998-28.37-18.74-45.27-18.74h-181.4c-35.35 0-64 28.65-64 64l.006 384c0 35.34 28.65 64 64 64h255.994c35.2 0 64-28.8 64-64v-309.4c0-16.9-6.7-33.2-18.7-45.22zm-29.3 354.62c0 8.836-7.164 16-16 16h-255.98c-8.838 0-16-7.164-16-16l-.02-383.87c0-8.836 7.164-16 16-16h160v79.87c0 17.67 14.33 32 32 32h79.1v288zm-256-192v128c0 17.67 14.33 32 32 32h160c17.67 0 32-14.33 32-32v-128c0-17.67-14.33-32-32-32h-160c-17.67 0-32 14.3-32 32zm96 128h-64v-48h64zm32-128h64v48h-64zm0 80h64v48h-64zm-32-32h-64v-48h64z" fill="#fff"/></svg>

<svg xmlns="http://www.w3.org/2000/svg" viewBox="0 0 384 512"><!--! Font Awesome Pro 6.2.0 by @fontawesome - https://fontawesome.com License - https://fontawesome.com/license (Commercial License) Copyright 2022 Fonticons, Inc.--><path fill="#fff" d="M365.3 93.38l-74.63-74.64C278.6 6.742 262.3 0 245.4 0H64C28.65 0 0 28.65 0 64l.006 384c0 35.34 28.65 64 64 64H320c35.2 0 64-28.8 64-64V138.6c0-16.9-6.7-33.2-18.7-45.22zM336 448c0 8.836-7.164 16-16 16H64.02c-8.838 0-16-7.164-16-16L48 64.13c0-8.836 7.164-16 16-16h160V128c0 17.67 14.33 32 32 32h79.1v288zM80 256v128c0 17.67 14.33 32 32 32h160c17.67 0 32-14.33 32-32V256c0-17.67-14.33-32-32-32H112c-17.67 0-32 14.3-32 32zm96 128h-64v-48h64v48zm32-128h64v48h-64v-48zm0 80h64v48h-64v-48zm-32-32h-64v-48h64v48z"/></svg>
